X: 322
M: C|
L: 1/8
K: A
V: 1
e |\
dfce B>cdf | ecaf Te2 A :|
|: g |\
(a/g/f/e/) ce B>cdg | (a/g/f/e/) ce (a/g/f/e/) ce |\
dfca B>cde | (e/f/g a)f Te2 A :|
V: 2 clef=bass middle=d
z |\
a2a2 b2b2 | a2a2 a2a2 |\
a2a2 b2b2 | a2a2 a2a :|\
|: z |\
a2a2
b2b2 | a2a2 a2a2 |\
d'2c'2 b2b2 | a2a2 a2a :|

